X:2
T:Behind the Bush in the Garden
T:What'll Be King But Charlie
S:Bernie Waugh
R:Jig
M:6/8
L:1/8
K:A minor
|:B|\
"C"~c2A AGE|~c2A AGE|"G"GAG ~G2E|"Em"G3 E3|
"F"A2B c2d|"Dm"efe e2d|"F"~c2A "G"BAG|"Am"A3 A2:|
|:B|\
"C"~c2B c2e|"G"efe e2d|"C"~c2B c2d|"Em"e2G G3|
"F"Bcd e2a|"Dm"~g2e d2f|"F"e2A "G"BAG|"Am"A3 A2:|

